src/pos-icons/arrow-right-circle.svg

<svg height="24" viewBox="0 0 24 24" width="24" xmlns="http://www.w3.org/2000/svg"><path d="m22 12a10 10 0 0 1 -10 10 10 10 0 0 1 -10-10 10 10 0 0 1 10-10 10 10 0 0 1 10 10m-16 1h8l-3.5 3.5 1.42 1.42 5.92-5.92-5.92-5.92-1.42 1.42 3.5 3.5h-8z"/></svg>

<?xml version="1.0" encoding="UTF-8"?><!DOCTYPE svg PUBLIC "-//W3C//DTD SVG 1.1//EN" "http://www.w3.org/Graphics/SVG/1.1/DTD/svg11.dtd"><svg xmlns="http://www.w3.org/2000/svg" xmlns:xlink="http://www.w3.org/1999/xlink" version="1.1" id="mdi-arrow-right-circle" width="24" height="24" viewBox="0 0 24 24"><path d="M22,12A10,10 0 0,1 12,22A10,10 0 0,1 2,12A10,10 0 0,1 12,2A10,10 0 0,1 22,12M6,13H14L10.5,16.5L11.92,17.92L17.84,12L11.92,6.08L10.5,7.5L14,11H6V13Z" /></svg>
